X:1
T: Whistle and I'll Come to you my Lad
C:
R:Jig
Q:180
K:Bb
M:6/8
L:1/16
|:Bc|d2B2G2 F2E2D2|C2c2c2 c4Bc|d2B2G2 F2D2F2|G2B2B2 B4Bc|
d2B2G2 F2E2D2|C2e2d2 c4df|d2B2G2 F2D2F2|G2B2B2 B4:|
|:dc|B2d2f2 B2d2f2|B2d2f2 f3edc|B2d2f2 B2d2f2|g2e2c2 c3edc|B2d2f2 B2d2f2|
B2b2g2 f3gfe|d2B2G2 F2E2D2|C2e2d2 c4Bc|d2B2G2 F2D2F2|G2B2B2 B4:|
